X:1
T:Title
%%score { ( 1 3 4 ) | 2 }
L:1/8
M:2/4
K:Ab
V:1 treble nm="Grand Piano"
V:3 treble 
V:4 treble 
V:2 bass 
V:1
 z2 z[Q:1/4=94] E | EE CD | Ec AF | EE C>D | z2 z E | DB BB | BG FE | C>A A>A | A4 | EE CD | %10
 Ec AG | FF Bc | d4 | cc dc | BB e>d | c2 A2 |[M:3/8] A3 |[M:1/4] [Ac][Bd] | %18
[M:9/16] [ce][ce]/-[ce][df]/-[df][ce]/ |[M:2/4] [ce]2 [Bd]2 | [GB][GB] [GB][Ac] | %21
 [Bd][Bd] [ce][Bd] | c2 d2 |[M:5/8] e3 [Ac][Bd] |[M:2/4] [ce][ce] [df]>[ce] | [ce]2 [Bd]2 | %26
 [GB][GB] [GB][Ac] | [Bd][Bd] [EAc][DFB] | [CEA]2 [B,DG]2 |[M:9/16] [A,CA]4- [A,CA]/ |] %30
V:2
 z4 | [A,,A,]2 [E,A,]2 | [A,,A,]2 [E,A,C]2 | [A,,A,]2 [E,A,]2 | [A,,A,]2 [E,A,]2 | %5
 [E,,E,]2 [E,B,D]2 | [E,,E,]2 [E,B,D]2 | [A,,A,]2 [E,A,C]2 | [A,,A,]2 [E,A,]2 | [A,,A,]2 [E,A,]2 | %10
 [A,,A,]2 [E,A,C]2 | [D,,D,]2 [E,B,D]2 | [B,,,B,,]2 [E,B,]2 | [E,,E,]2 [E,A,C]2 | %14
 [E,,E,]2 [E,B,D]2 | [A,,A,]2 [E,A,C]2 |[M:3/8] [E,A,C]3 |[M:1/4] [A,,A,][A,,A,] | %18
[M:9/16] [A,,A,][A,,A,]/-[A,,A,][A,,A,]/-[A,,A,][A,,A,]/ |[M:2/4] [E,A,]2 [E,G,]2 | %20
 [E,E][E,E] [E,E][E,E] | [E,E][E,E] [E,E][E,E] | [A,EA]2 [A,B,G]2 | %23
[M:5/8] [A,CA]3[K:bass] [A,,A,][A,,A,] |[M:2/4] [A,,A,][A,,A,] [A,,A,]>[A,,A,] | E,2 E,2 | %26
 [E,E][E,E] [E,E][E,E] | [E,E][E,E] A,,D, | E,2 E,2 |[M:9/16] A,,4- A,,/ |] %30
V:3
 x4 | x4 | x4 | x4 | E4 | x4 | x4 | x4 | z2 z E | x4 | x4 | x4 | z2 D2 | x4 | x4 | x4 |[M:3/8] x3 | %17
[M:1/4] x2 |[M:9/16] x9/2 |[M:2/4] x4 | x4 | x4 | x4 |[M:5/8] x5 |[M:2/4] x4 | x4 | x4 | x4 | x4 | %29
[M:9/16] x9/2 |] %30
V:4
 x4 | x4 | x4 | x4 | z2 C2 | x4 | x4 | x4 | z2 C2 | x4 | x4 | x4 | x4 | x4 | x4 | x4 |[M:3/8] x3 | %17
[M:1/4] x2 |[M:9/16] x9/2 |[M:2/4] x4 | x4 | x4 | x4 |[M:5/8] x5 |[M:2/4] x4 | x4 | x4 | x4 | x4 | %29
[M:9/16] x9/2 |] %30

